;FLAVOR:Marlin
;TIME:945
;Filament used: 0.885299m
;Layer height: 0.16
;MINX:147.25
;MINY:147.25
;MINZ:0.1
;MAXX:182.75
;MAXY:182.75
;MAXZ:9.86
;Generated with Cura_SteamEngine 4.5.0
M140 S60
M105
M190 S60
M104 S200
M105
M109 S200
M82 ;absolute extrusion mode
G21 ;metric values
G90 ;absolute positioning
M82 ;set extruder to absolute mode
M107 ;start with the fan off
G28 X0 Y0 ;move X/Y to min endstops
G28 Z0 ;move Z to min endstops
G1 Z15.0 F9000 ;move the platform down 15mm
G92 E0 ;zero the extruded length
G1 F200 E3 ;extrude 3mm of feed stock
G92 E0 ;zero the extruded length again
G1 F9000
;Put printing message on LCD screen
M117 Printing...
G92 E0
;POSICIONAMIENTO FRENTE A LA HERRAMIENTA
G0 X284.00 Y296.00	F5000
;ESPERAR UN SEGUNDO
G4 S1 F5000
;ENTRAR EN LA HERRAMIENTA
G0 X284.00 Y315.00	F5000
;ESPERAR UN	SEGUNDO
G4 S1
;CAMBIAR DE MOTOR DE "NOZZLE" AL LOCKER
T1
;HABILITAR MOVIMINETO EN FRÍO
M302 S0
;ACTIVAR LOCKER
G0 E0.18 F200
;VOLVER A SETEAR EL MOTOR EXTRUSOR
T0
;DISPOSICION PARA MOVIMIENTO
G0 X284.00 Y315.00	F5000
G0 X165.00 Y280.00	F5000
;offset Z
G0 Z5 F200
G92 Z0
G92 E0
;LAYER_COUNT:62
;LAYER:0
M107
M204 S5000
M205 X30 Y30
G0 F3600 X149.673 Y149.371 Z0.1
M204 S1500
M205 X2 Y2
;TYPE:SKIRT
M221 S120
G1 F3000 X150.271 Y148.86 E0.01635
G1 X150.918 Y148.412 E0.03271
G1 X151.608 Y148.032 E0.04909
G1 X152.332 Y147.724 E0.06544
G1 X153.084 Y147.491 E0.08181
G1 X153.855 Y147.335 E0.09816
G1 X155 Y147.25 E0.12203
G1 X175 Y147.25 E0.53778
G1 X175.786 Y147.29 E0.55414
G1 X176.564 Y147.409 E0.5705
G1 X177.326 Y147.607 E0.58686
G1 X178.064 Y147.881 E0.60323
G1 X178.77 Y148.229 E0.61959
G1 X179.438 Y148.646 E0.63596
G1 X180.059 Y149.129 E0.65231
G1 X180.629 Y149.673 E0.66869
G1 X181.14 Y150.271 E0.68504
G1 X181.588 Y150.918 E0.7014
G1 X181.968 Y151.608 E0.71778
G1 X182.276 Y152.332 E0.73413
G1 X182.509 Y153.084 E0.7505
G1 X182.665 Y153.855 E0.76685
G1 X182.75 Y155 E0.79072
G1 X182.75 Y175 E1.20647
G1 X182.71 Y175.786 E1.22283
G1 X182.591 Y176.564 E1.23919
G1 X182.393 Y177.326 E1.25556
G1 X182.119 Y178.064 E1.27192
G1 X181.771 Y178.77 E1.28828
G1 X181.354 Y179.438 E1.30465
G1 X180.871 Y180.059 E1.32101
G1 X180.327 Y180.629 E1.33739
G1 X179.729 Y181.14 E1.35374
G1 X179.082 Y181.588 E1.3701
G1 X178.392 Y181.968 E1.38647
G1 X177.668 Y182.276 E1.40283
G1 X176.916 Y182.509 E1.41919
G1 X176.145 Y182.665 E1.43555
G1 X175 Y182.75 E1.45941
G1 X155 Y182.75 E1.87516
G1 X154.214 Y182.71 E1.89152
G1 X153.436 Y182.591 E1.90789
G1 X152.674 Y182.393 E1.92425
G1 X151.936 Y182.119 E1.94062
G1 X151.23 Y181.771 E1.95698
G1 X150.562 Y181.354 E1.97335
G1 X149.941 Y180.871 E1.9897
G1 X149.371 Y180.327 E2.00608
G1 X148.86 Y179.729 E2.02243
G1 X148.412 Y179.082 E2.03879
G1 X148.032 Y178.392 E2.05517
G1 X147.724 Y177.668 E2.07152
G1 X147.491 Y176.916 E2.08789
G1 X147.335 Y176.145 E2.10424
G1 X147.25 Y175 E2.12811
G1 X147.25 Y155 E2.54386
G1 X147.29 Y154.214 E2.56022
G1 X147.409 Y153.436 E2.57658
G1 X147.607 Y152.674 E2.59295
G1 X147.881 Y151.936 E2.60931
G1 X148.229 Y151.23 E2.62567
G1 X148.646 Y150.562 E2.64204
G1 X149.129 Y149.941 E2.6584
G1 X149.673 Y149.371 E2.67477
M204 S5000
M205 X30 Y30
G0 F3600 X150.163 Y149.599
M204 S1500
M205 X2 Y2
G1 F3000 X150.756 Y149.122 E2.69059
G1 X151.396 Y148.709 E2.70643
G1 X152.076 Y148.366 E2.72226
G1 X152.788 Y148.096 E2.73809
G1 X153.524 Y147.902 E2.75391
G1 X154.276 Y147.786 E2.76973
G1 X155 Y147.75 E2.7848
G1 X175 Y147.75 E3.20055
G1 X175.76 Y147.79 E3.21637
G1 X176.512 Y147.909 E3.2322
G1 X177.247 Y148.107 E3.24802
G1 X177.958 Y148.381 E3.26386
G1 X178.636 Y148.727 E3.27968
G1 X179.273 Y149.143 E3.2955
G1 X179.864 Y149.624 E3.31134
G1 X180.401 Y150.163 E3.32715
G1 X180.878 Y150.756 E3.34297
G1 X181.291 Y151.396 E3.35881
G1 X181.634 Y152.076 E3.37464
G1 X181.904 Y152.788 E3.39047
G1 X182.098 Y153.524 E3.40629
G1 X182.214 Y154.276 E3.42211
G1 X182.25 Y155 E3.43718
G1 X182.25 Y175 E3.85293
G1 X182.21 Y175.76 E3.86875
G1 X182.091 Y176.512 E3.88458
G1 X181.893 Y177.247 E3.9004
G1 X181.619 Y177.958 E3.91624
G1 X181.273 Y178.636 E3.93206
G1 X180.857 Y179.273 E3.94788
G1 X180.376 Y179.864 E3.96372
G1 X179.837 Y180.401 E3.97953
G1 X179.244 Y180.878 E3.99535
G1 X178.604 Y181.291 E4.01119
G1 X177.924 Y181.634 E4.02702
G1 X177.212 Y181.904 E4.04285
G1 X176.476 Y182.098 E4.05867
G1 X175.724 Y182.214 E4.07449
G1 X175 Y182.25 E4.08956
G1 X155 Y182.25 E4.50531
G1 X154.24 Y182.21 E4.52113
G1 X153.488 Y182.091 E4.53696
G1 X152.753 Y181.893 E4.55278
G1 X152.042 Y181.619 E4.56862
G1 X151.364 Y181.273 E4.58444
G1 X150.727 Y180.857 E4.60026
G1 X150.136 Y180.376 E4.6161
G1 X149.599 Y179.837 E4.63191
G1 X149.122 Y179.244 E4.64773
G1 X148.709 Y178.604 E4.66357
G1 X148.366 Y177.924 E4.6794
G1 X148.096 Y177.212 E4.69523
G1 X147.902 Y176.476 E4.71105
G1 X147.786 Y175.724 E4.72687
G1 X147.75 Y175 E4.74194
G1 X147.75 Y155 E5.15769
G1 X147.79 Y154.24 E5.17351
G1 X147.909 Y153.488 E5.18934
G1 X148.107 Y152.753 E5.20516
G1 X148.381 Y152.042 E5.221
G1 X148.727 Y151.364 E5.23682
G1 X149.143 Y150.727 E5.25264
G1 X149.624 Y150.136 E5.26848
G1 X150.163 Y149.599 E5.28429
M204 S5000
M205 X30 Y30
G0 F3600 X150.117 Y150.339
M204 S1500
M205 X2 Y2
G1 F3000 X150.653 Y149.836 E5.29957
G1 X151.24 Y149.394 E5.31485
G1 X151.871 Y149.019 E5.33011
G1 X152.539 Y148.714 E5.34537
G1 X153.237 Y148.484 E5.36065
G1 X153.956 Y148.331 E5.37593
G1 X155 Y148.25 E5.3977
G1 X175 Y148.25 E5.81345
G1 X175.733 Y148.29 E5.82871
G1 X176.458 Y148.409 E5.84398
G1 X177.166 Y148.607 E5.85926
G1 X177.848 Y148.88 E5.87454
G1 X178.496 Y149.226 E5.88981
G1 X179.103 Y149.64 E5.90508
G1 X179.661 Y150.117 E5.92034
G1 X180.164 Y150.653 E5.93562
G1 X180.606 Y151.24 E5.95089
G1 X180.981 Y151.871 E5.96615
G1 X181.286 Y152.539 E5.98142
G1 X181.516 Y153.237 E5.9967
G1 X181.669 Y153.956 E6.01198
G1 X181.75 Y155 E6.03374
G1 X181.75 Y175 E6.4495
G1 X181.71 Y175.733 E6.46476
G1 X181.591 Y176.458 E6.48003
G1 X181.393 Y177.166 E6.49531
G1 X181.12 Y177.848 E6.51058
G1 X180.774 Y178.496 E6.52585
G1 X180.36 Y179.103 E6.54112
G1 X179.883 Y179.661 E6.55638
G1 X179.347 Y180.164 E6.57166
G1 X178.76 Y180.606 E6.58694
G1 X178.129 Y180.981 E6.6022
G1 X177.461 Y181.286 E6.61746
G1 X176.763 Y181.516 E6.63274
G1 X176.044 Y181.669 E6.64802
G1 X175 Y181.75 E6.66979
G1 X155 Y181.75 E7.08554
G1 X154.267 Y181.71 E7.1008
G1 X153.542 Y181.591 E7.11607
G1 X152.834 Y181.393 E7.13136
G1 X152.152 Y181.12 E7.14663
G1 X151.504 Y180.774 E7.1619
G1 X150.897 Y180.36 E7.17717
G1 X150.339 Y179.883 E7.19243
G1 X149.836 Y179.347 E7.20771
G1 X149.394 Y178.76 E7.22298
G1 X149.019 Y178.129 E7.23824
G1 X148.714 Y177.461 E7.25351
G1 X148.484 Y176.763 E7.26879
G1 X148.331 Y176.044 E7.28407
G1 X148.25 Y175 E7.30583
G1 X148.25 Y155 E7.72159
G1 X148.29 Y154.267 E7.73685
G1 X148.409 Y153.542 E7.75212
G1 X148.607 Y152.834 E7.7674
G1 X148.88 Y152.152 E7.78267
G1 X149.226 Y151.504 E7.79794
G1 X149.64 Y150.897 E7.81321
G1 X150.117 Y150.339 E7.82847
M204 S5000
M205 X30 Y30
G0 F3600 X150.61 Y150.551
M204 S1500
M205 X2 Y2
G1 F3000 X151.141 Y150.084 E7.84317
G1 X151.72 Y149.68 E7.85785
G1 X152.342 Y149.343 E7.87256
G1 X152.998 Y149.079 E7.88726
G1 X153.679 Y148.891 E7.90194
G1 X154.377 Y148.781 E7.91663
G1 X155 Y148.75 E7.9296
G1 X175 Y148.75 E8.34535
G1 X175.706 Y148.79 E8.36005
G1 X176.402 Y148.909 E8.37473
G1 X177.081 Y149.107 E8.38943
G1 X177.733 Y149.379 E8.40412
G1 X178.35 Y149.724 E8.41881
G1 X178.925 Y150.136 E8.43351
G1 X179.449 Y150.61 E8.4482
G1 X179.916 Y151.141 E8.4629
G1 X180.32 Y151.72 E8.47758
G1 X180.657 Y152.342 E8.49228
G1 X180.921 Y152.998 E8.50698
G1 X181.109 Y153.679 E8.52167
G1 X181.219 Y154.377 E8.53636
G1 X181.25 Y155 E8.54933
G1 X181.25 Y175 E8.96508
G1 X181.21 Y175.706 E8.97978
G1 X181.091 Y176.402 E8.99445
G1 X180.893 Y177.081 E9.00916
G1 X180.621 Y177.733 E9.02384
G1 X180.276 Y178.35 E9.03854
G1 X179.864 Y178.925 E9.05324
G1 X179.39 Y179.449 E9.06793
G1 X178.859 Y179.916 E9.08263
G1 X178.28 Y180.32 E9.09731
G1 X177.658 Y180.657 E9.11201
G1 X177.002 Y180.921 E9.12671
G1 X176.321 Y181.109 E9.1414
G1 X175.623 Y181.219 E9.15609
G1 X175 Y181.25 E9.16905
G1 X155 Y181.25 E9.5848
G1 X154.294 Y181.21 E9.5995
G1 X153.598 Y181.091 E9.61418
G1 X152.919 Y180.893 E9.62889
G1 X152.267 Y180.621 E9.64357
G1 X151.65 Y180.276 E9.65827
G1 X151.075 Y179.864 E9.67297
G1 X150.551 Y179.39 E9.68766
G1 X150.084 Y178.859 E9.70236
G1 X149.68 Y178.28 E9.71703
G1 X149.343 Y177.658 E9.73174
G1 X149.079 Y177.002 E9.74644
G1 X148.891 Y176.321 E9.76113
G1 X148.781 Y175.623 E9.77581
G1 X148.75 Y175 E9.78878
G1 X148.75 Y155 E10.20453
G1 X148.79 Y154.294 E10.21923
G1 X148.909 Y153.598 E10.23391
G1 X149.107 Y152.919 E10.24861
G1 X149.379 Y152.267 E10.2633
G1 X149.724 Y151.65 E10.27799
G1 X150.136 Y151.075 E10.2927
G1 X150.61 Y150.551 E10.30739
M204 S5000
M205 X30 Y30
G0 F3600 X151.102 Y150.773
M204 S1500
M205 X2 Y2
G1 F3000 X151.626 Y150.344 E10.32146
G1 X152.198 Y149.979 E10.33557
G1 X152.808 Y149.684 E10.34965
G1 X153.449 Y149.463 E10.36375
G1 X154.111 Y149.319 E10.37783
G1 X155 Y149.25 E10.39637
G1 X175 Y149.25 E10.81212
G1 X175.677 Y149.29 E10.82622
G1 X176.344 Y149.409 E10.8403
G1 X176.993 Y149.606 E10.8544
G1 X177.614 Y149.878 E10.86849
G1 X178.198 Y150.222 E10.88258
G1 X178.739 Y150.631 E10.89668
G1 X179.227 Y151.102 E10.91078
G1 X179.656 Y151.626 E10.92486
G1 X180.021 Y152.198 E10.93896
G1 X180.316 Y152.808 E10.95305
G1 X180.537 Y153.449 E10.96714
G1 X180.681 Y154.111 E10.98123
G1 X180.75 Y155 E10.99976
G1 X180.75 Y175 E11.41551
G1 X180.71 Y175.677 E11.42961
G1 X180.591 Y176.344 E11.44369
G1 X180.394 Y176.993 E11.45779
G1 X180.122 Y177.614 E11.47189
G1 X179.778 Y178.198 E11.48598
G1 X179.369 Y178.739 E11.50007
G1 X178.898 Y179.227 E11.51417
G1 X178.374 Y179.656 E11.52825
G1 X177.802 Y180.021 E11.54236
G1 X177.192 Y180.316 E11.55644
G1 X176.551 Y180.537 E11.57054
G1 X175.889 Y180.681 E11.58462
G1 X175 Y180.75 E11.60315
G1 X155 Y180.75 E12.01891
G1 X154.323 Y180.71 E12.033
G1 X153.656 Y180.591 E12.04709
G1 X153.007 Y180.394 E12.06119
G1 X152.386 Y180.122 E12.07528
G1 X151.802 Y179.778 E12.08937
G1 X151.261 Y179.369 E12.10347
G1 X150.773 Y178.898 E12.11757
G1 X150.344 Y178.374 E12.13164
G1 X149.979 Y177.802 E12.14575
G1 X149.684 Y177.192 E12.15983
G1 X149.463 Y176.551 E12.17393
G1 X149.319 Y175.889 E12.18801
G1 X149.25 Y175 E12.20655
G1 X149.25 Y155 E12.6223
G1 X149.29 Y154.323 E12.6364
G1 X149.409 Y153.656 E12.65048
G1 X149.606 Y153.007 E12.66458
G1 X149.878 Y152.386 E12.67867
G1 X150.222 Y151.802 E12.69276
G1 X150.631 Y151.261 E12.70686
G1 X151.102 Y150.773 E12.72096
M204 S5000
M205 X30 Y30
G0 F3600 X151.592 Y151.007
M204 S1500
M205 X2 Y2
G1 F3000 X152.109 Y150.618 E12.73441
G1 X152.671 Y150.295 E12.74788
G1 X153.268 Y150.044 E12.76135
G1 X153.892 Y149.868 E12.77482
G1 X154.532 Y149.771 E12.78828
G1 X175 Y149.75 E13.21376
G1 X175.647 Y149.79 E13.22724
G1 X176.283 Y149.909 E13.24069
G1 X176.9 Y150.106 E13.25415
G1 X177.489 Y150.377 E13.26763
G1 X178.039 Y150.719 E13.28109
G1 X178.543 Y151.126 E13.29456
G1 X178.993 Y151.592 E13.30802
G1 X179.382 Y152.109 E13.32147
G1 X179.705 Y152.671 E13.33495
G1 X179.956 Y153.268 E13.34841
G1 X180.132 Y153.892 E13.36189
G1 X180.229 Y154.532 E13.37534
G1 X180.25 Y175 E13.80083
G1 X180.21 Y175.647 E13.8143
G1 X180.091 Y176.283 E13.82775
G1 X179.894 Y176.9 E13.84121
G1 X179.623 Y177.489 E13.85469
G1 X179.281 Y178.039 E13.86816
G1 X178.874 Y178.543 E13.88162
G1 X178.408 Y178.993 E13.89509
G1 X177.891 Y179.382 E13.90854
G1 X177.329 Y179.705 E13.92201
G1 X176.732 Y179.956 E13.93548
G1 X176.108 Y180.132 E13.94895
G1 X175.468 Y180.229 E13.96241
G1 X155 Y180.25 E14.38789
G1 X154.353 Y180.21 E14.40136
G1 X153.717 Y180.091 E14.41481
G1 X153.1 Y179.894 E14.42828
G1 X152.511 Y179.623 E14.44176
G1 X151.961 Y179.281 E14.45522
G1 X151.457 Y178.874 E14.46869
G1 X151.007 Y178.408 E14.48215
G1 X150.618 Y177.891 E14.4956
G1 X150.295 Y177.329 E14.50908
G1 X150.044 Y176.732 E14.52254
G1 X149.868 Y176.108 E14.53602
G1 X149.771 Y175.468 E14.54947
G1 X149.75 Y155 E14.97495
G1 X149.79 Y154.353 E14.98843
G1 X149.909 Y153.717 E15.00188
G1 X150.106 Y153.1 E15.01534
G1 X150.377 Y152.511 E15.02882
G1 X150.719 Y151.961 E15.04228
G1 X151.126 Y151.457 E15.05575
G1 X151.592 Y151.007 E15.06922
M204 S5000
M205 X30 Y30
G0 F3600 X151.619 Y151.663
M204 S1500
M205 X2 Y2
G1 F3000 X152.079 Y151.254 E15.08201
G1 X152.589 Y150.907 E15.09484
G1 X153.139 Y150.63 E15.10764
G1 X153.72 Y150.426 E15.12044
G1 X154.323 Y150.298 E15.13325
G1 X155 Y150.25 E15.14736
G1 X175 Y150.25 E15.56311
G1 X175.615 Y150.29 E15.57592
G1 X176.219 Y150.409 E15.58872
G1 X176.803 Y150.606 E15.60153
G1 X177.357 Y150.876 E15.61434
G1 X177.871 Y151.216 E15.62715
G1 X178.337 Y151.619 E15.63996
G1 X178.746 Y152.079 E15.65276
G1 X179.093 Y152.589 E15.66558
G1 X179.37 Y153.139 E15.67838
G1 X179.574 Y153.72 E15.69118
G1 X179.702 Y154.323 E15.704
G1 X179.75 Y155 E15.7181
G1 X179.75 Y175 E16.13386
G1 X179.71 Y175.615 E16.14667
G1 X179.591 Y176.219 E16.15946
G1 X179.394 Y176.803 E16.17228
G1 X179.124 Y177.357 E16.18509
G1 X178.784 Y177.871 E16.1979
G1 X178.381 Y178.337 E16.2107
G1 X177.921 Y178.746 E16.2235
G1 X177.411 Y179.093 E16.23632
G1 X176.861 Y179.37 E16.24912
G1 X176.28 Y179.574 E16.26193
G1 X175.677 Y179.702 E16.27474
G1 X175 Y179.75 E16.28885
G1 X155 Y179.75 E16.7046
G1 X154.385 Y179.71 E16.71741
G1 X153.781 Y179.591 E16.73021
G1 X153.197 Y179.394 E16.74302
G1 X152.643 Y179.124 E16.75583
G1 X152.129 Y178.784 E16.76864
G1 X151.663 Y178.381 E16.78145
G1 X151.254 Y177.921 E16.79424
G1 X150.907 Y177.411 E16.80707
G1 X150.63 Y176.861 E16.81987
G1 X150.426 Y176.28 E16.83267
G1 X150.298 Y175.677 E16.84548
G1 X150.25 Y175 E16.85959
G1 X150.25 Y155 E17.27534
G1 X150.29 Y154.385 E17.28816
G1 X150.409 Y153.781 E17.30095
G1 X150.606 Y153.197 E17.31376
G1 X150.876 Y152.643 E17.32658
G1 X151.216 Y152.129 E17.33939
G1 X151.619 Y151.663 E17.35219
M204 S5000
M205 X30 Y30
G0 F3600 X152.111 Y151.883
M204 S1500
M205 X2 Y2
G1 F3000 X152.565 Y151.517 E17.36432
G1 X153.064 Y151.217 E17.37642
G1 X153.6 Y150.987 E17.38854
G1 X154.162 Y150.833 E17.40066
G1 X155 Y150.75 E17.41816
G1 X175 Y150.75 E17.83391
G1 X175.581 Y150.79 E17.84602
G1 X176.152 Y150.909 E17.85814
G1 X176.701 Y151.105 E17.87026
G1 X177.217 Y151.374 E17.88236
G1 X177.693 Y151.712 E17.89449
G1 X178.117 Y152.111 E17.9066
G1 X178.483 Y152.565 E17.91872
G1 X178.783 Y153.064 E17.93082
G1 X179.013 Y153.6 E17.94295
G1 X179.167 Y154.162 E17.95506
G1 X179.25 Y155 E17.97257
G1 X179.25 Y175 E18.38832
G1 X179.21 Y175.581 E18.40042
G1 X179.091 Y176.152 E18.41255
G1 X178.895 Y176.701 E18.42467
G1 X178.626 Y177.217 E18.43676
G1 X178.288 Y177.693 E18.4489
G1 X177.889 Y178.117 E18.461
G1 X177.435 Y178.483 E18.47312
G1 X176.936 Y178.783 E18.48523
G1 X176.4 Y179.013 E18.49735
G1 X175.838 Y179.167 E18.50947
G1 X175 Y179.25 E18.52697
G1 X155 Y179.25 E18.94272
G1 X154.419 Y179.21 E18.95483
G1 X153.848 Y179.091 E18.96695
G1 X153.299 Y178.895 E18.97907
G1 X152.783 Y178.626 E18.99117
G1 X152.307 Y178.288 E19.0033
G1 X151.883 Y177.889 E19.01541
G1 X151.517 Y177.435 E19.02753
G1 X151.217 Y176.936 E19.03963
G1 X150.987 Y176.4 E19.05176
G1 X150.833 Y175.838 E19.06387
G1 X150.75 Y175 E19.08138
G1 X150.75 Y155 E19.49713
G1 X150.79 Y154.419 E19.50923
G1 X150.909 Y153.848 E19.52136
G1 X151.105 Y153.299 E19.53348
G1 X151.374 Y152.783 E19.54557
G1 X151.712 Y152.307 E19.55771
G1 X152.111 Y151.883 E19.56981
M204 S5000
M205 X30 Y30
G0 F3600 X152.601 Y152.118
M204 S1500
M205 X2 Y2
G1 F3000 X153.046 Y151.799 E19.58119
G1 X153.533 Y151.549 E19.59257
G1 X154.051 Y151.372 E19.60395
