;FLAVOR:Marlin
;TIME:2272
;Filament used: 1.41843m
;Layer height: 0.16
;MINX:149.12
;MINY:149.12
;MINZ:0.1
;MAXX:180.88
;MAXY:180.88
;MAXZ:19.94
;Generated with Cura_SteamEngine 4.5.0
M140 S60
M105
M190 S60
M104 S190
M105
M109 S190
M82 ;absolute extrusion mode
G21 ;metric values
G90 ;absolute positioning
M82 ;set extruder to absolute mode
M107 ;start with the fan off
G28 X0 Y0 ;move X/Y to min endstops
G28 Z0 ;move Z to min endstops
G1 Z15.0 F9000 ;move the platform down 15mm
G92 E0 ;zero the extruded length
G1 F200 E3 ;extrude 3mm of feed stock
G92 E0 ;zero the extruded length again
G1 F9000
;Put printing message on LCD screen
M117 Printing...
G92 E0
G0 X284.00 Y296.00	F5000	;POSICIONAMIENTO FRENTE A LA HERRAMIENTA
G4 S1				F5000	;ESPERAR UN SEGUNDO
G0 X284.00 Y315.00	F5000	;ENTRAR EN LA HERRAMIENTA
G4 S1						;ESPERAR UN	SEGUNDO
T1							;CAMBIAR DE MOTOR DE "NOZZLE" AL LOCKER
M302 S0						;HABILITAR MOVIMINETO EN FRÍO
G0 E0.35 F200				;ACTIVAR LOCKER
T0							;VOLVER A SETEAR EL MOTOR EXTRUSOR
G0 X284.00 Y315.00	F5000	;DISPOSICION PARA MOVIMIENTO
G0 X165.00 Y296.00	F5000
;prueba imprimir
G28 X Y F3000
G1 Z10 F3000
M428
G92 E0
;LAYER_COUNT:125
;LAYER:0
M107
M204 S5000
M205 X30 Y30
G0 F3600 X150.845 Y150.956 Z0.1
M204 S1500
M205 X2 Y2
;TYPE:SKIRT
G1 F3000 X151.469 Y150.389 E0.01305
G1 X152.031 Y149.996 E0.02367
G1 X152.635 Y149.67 E0.0343
G1 X153.273 Y149.417 E0.04492
G1 X153.936 Y149.24 E0.05555
G1 X154.615 Y149.142 E0.06617
G1 X155.121 Y149.12 E0.07401
G1 X174.879 Y149.12 E0.37992
G1 X175.564 Y149.16 E0.39054
G1 X176.24 Y149.279 E0.40117
G1 X176.897 Y149.476 E0.41179
G1 X177.527 Y149.749 E0.42242
G1 X178.121 Y150.092 E0.43304
G1 X178.671 Y150.503 E0.44367
G1 X179.169 Y150.974 E0.45428
G1 X179.609 Y151.5 E0.4649
G1 X179.985 Y152.074 E0.47552
G1 X180.292 Y152.688 E0.48615
G1 X180.525 Y153.333 E0.49677
G1 X180.682 Y154.001 E0.50739
G1 X180.769 Y154.977 E0.52256
G1 X180.88 Y174.846 E0.83019
G1 X180.844 Y175.531 E0.84081
G1 X180.728 Y176.208 E0.85145
G1 X180.535 Y176.866 E0.86206
G1 X180.266 Y177.497 E0.87268
G1 X179.926 Y178.093 E0.88331
G1 X179.518 Y178.645 E0.89393
G1 X179.155 Y179.044 E0.90229
G1 X178.531 Y179.611 E0.91534
G1 X177.969 Y180.004 E0.92596
G1 X177.365 Y180.33 E0.93658
G1 X176.727 Y180.583 E0.94721
G1 X176.064 Y180.76 E0.95783
G1 X175.385 Y180.858 E0.96846
G1 X174.879 Y180.88 E0.9763
G1 X155.121 Y180.88 E1.2822
G1 X154.436 Y180.84 E1.29283
G1 X153.76 Y180.721 E1.30345
G1 X153.103 Y180.524 E1.31407
G1 X152.473 Y180.251 E1.3247
G1 X151.879 Y179.908 E1.33532
G1 X151.329 Y179.497 E1.34595
G1 X150.956 Y179.155 E1.35379
G1 X150.389 Y178.531 E1.36684
G1 X149.996 Y177.969 E1.37746
G1 X149.67 Y177.365 E1.38809
G1 X149.417 Y176.727 E1.39871
G1 X149.24 Y176.064 E1.40934
G1 X149.142 Y175.385 E1.41996
G1 X149.12 Y174.879 E1.4278
G1 X149.12 Y155.121 E1.73371
G1 X149.16 Y154.436 E1.74433
G1 X149.279 Y153.76 E1.75496
G1 X149.476 Y153.103 E1.76558
G1 X149.749 Y152.473 E1.77621
G1 X150.092 Y151.879 E1.78683
G1 X150.503 Y151.329 E1.79746
G1 X150.845 Y150.956 E1.80529
M204 S5000
M205 X30 Y30
G0 F3600 X151.225 Y151.114
M204 S1500
M205 X2 Y2
G1 F3000 X151.722 Y150.674 E1.81557
G1 X152.267 Y150.296 E1.82584
G1 X152.855 Y149.988 E1.83612
G1 X153.475 Y149.752 E1.84639
G1 X154.119 Y149.592 E1.85666
G1 X154.778 Y149.511 E1.86694
G1 X174.879 Y149.5 E2.17816
G1 X175.541 Y149.54 E2.18842
G1 X176.194 Y149.659 E2.1987
G1 X176.828 Y149.856 E2.20898
G1 X177.433 Y150.128 E2.21925
G1 X178.002 Y150.47 E2.22953
G1 X178.525 Y150.879 E2.23981
G1 X178.995 Y151.347 E2.25008
G1 X179.406 Y151.868 E2.26035
G1 X179.751 Y152.435 E2.27063
G1 X180.025 Y153.04 E2.28091
G1 X180.224 Y153.673 E2.29118
G1 X180.346 Y154.325 E2.30145
G1 X180.389 Y154.979 E2.3116
G1 X180.5 Y174.848 E2.61923
G1 X180.464 Y175.511 E2.62951
G1 X180.348 Y176.164 E2.63978
G1 X180.155 Y176.799 E2.65005
G1 X179.886 Y177.406 E2.66033
G1 X179.547 Y177.976 E2.6706
G1 X179.142 Y178.502 E2.68088
G1 X178.775 Y178.886 E2.6891
G1 X178.278 Y179.326 E2.69938
G1 X177.733 Y179.704 E2.70965
G1 X177.145 Y180.012 E2.71993
G1 X176.525 Y180.248 E2.7302
G1 X175.881 Y180.408 E2.74047
G1 X175.222 Y180.489 E2.75075
G1 X155.121 Y180.5 E3.06197
G1 X154.459 Y180.46 E3.07223
G1 X153.806 Y180.341 E3.08251
G1 X153.172 Y180.144 E3.09279
G1 X152.567 Y179.872 E3.10306
G1 X151.998 Y179.53 E3.11334
G1 X151.475 Y179.121 E3.12362
G1 X151.114 Y178.775 E3.13136
G1 X150.674 Y178.278 E3.14164
G1 X150.296 Y177.733 E3.15191
G1 X149.988 Y177.145 E3.16218
G1 X149.752 Y176.525 E3.17245
G1 X149.592 Y175.881 E3.18273
G1 X149.511 Y175.222 E3.19301
G1 X149.5 Y155.121 E3.50422
G1 X149.54 Y154.459 E3.51449
G1 X149.659 Y153.806 E3.52477
G1 X149.856 Y153.172 E3.53505
G1 X150.128 Y152.567 E3.54532
G1 X150.47 Y151.998 E3.5556
G1 X150.879 Y151.475 E3.56587
G1 X151.225 Y151.114 E3.57362
M204 S5000
M205 X30 Y30
G0 F3600 X151.383 Y151.494
M204 S1500
M205 X2 Y2
G1 F3000 X151.974 Y150.959 E3.58596
G1 X152.503 Y150.598 E3.59587
G1 X153.073 Y150.307 E3.60578
G1 X153.675 Y150.088 E3.6157
G1 X154.299 Y149.946 E3.62561
G1 X155.121 Y149.88 E3.63838
G1 X174.879 Y149.88 E3.94428
G1 X175.518 Y149.92 E3.95419
G1 X176.147 Y150.039 E3.96411
G1 X176.757 Y150.236 E3.97403
G1 X177.337 Y150.507 E3.98394
G1 X177.878 Y150.848 E3.99384
G1 X178.374 Y151.254 E4.00377
G1 X178.814 Y151.719 E4.01368
G1 X179.193 Y152.235 E4.02359
G1 X179.506 Y152.794 E4.03351
G1 X179.746 Y153.387 E4.04342
G1 X179.91 Y154.006 E4.05333
G1 X179.996 Y154.641 E4.06325
G1 X180.12 Y174.85 E4.37614
G1 X180.084 Y175.49 E4.38607
G1 X179.968 Y176.119 E4.39597
G1 X179.774 Y176.73 E4.4059
G1 X179.507 Y177.311 E4.4158
G1 X179.168 Y177.855 E4.42572
G1 X178.617 Y178.506 E4.43893
G1 X178.026 Y179.041 E4.45127
G1 X177.497 Y179.402 E4.46118
G1 X176.927 Y179.693 E4.47109
G1 X176.325 Y179.912 E4.48101
G1 X175.701 Y180.054 E4.49092
G1 X174.879 Y180.12 E4.50369
G1 X155.121 Y180.12 E4.80959
G1 X154.482 Y180.08 E4.8195
G1 X153.853 Y179.961 E4.82942
G1 X153.243 Y179.764 E4.83934
G1 X152.663 Y179.493 E4.84925
G1 X152.122 Y179.152 E4.85915
G1 X151.494 Y178.617 E4.87193
G1 X150.959 Y178.026 E4.88427
G1 X150.598 Y177.497 E4.89418
G1 X150.307 Y176.927 E4.90409
G1 X150.088 Y176.325 E4.91401
G1 X149.946 Y175.701 E4.92392
G1 X149.88 Y174.879 E4.93669
G1 X149.88 Y155.121 E5.24259
G1 X149.92 Y154.482 E5.2525
G1 X150.039 Y153.853 E5.26242
G1 X150.236 Y153.243 E5.27234
G1 X150.507 Y152.663 E5.28225
G1 X150.848 Y152.122 E5.29215
G1 X151.383 Y151.494 E5.30493
M204 S5000
M205 X30 Y30
G0 F3600 X151.651 Y151.762
M204 S1500
M205 X2 Y2
G1 F3000 X152.225 Y151.245 E5.31689
G1 X152.737 Y150.902 E5.32643
G1 X153.289 Y150.628 E5.33597
G1 X153.871 Y150.427 E5.3455
G1 X154.475 Y150.304 E5.35505
G1 X155.121 Y150.26 E5.36507
G1 X174.879 Y150.26 E5.67098
G1 X175.494 Y150.3 E5.68052
G1 X176.098 Y150.419 E5.69005
G1 X176.682 Y150.616 E5.69959
G1 X177.236 Y150.886 E5.70913
G1 X177.75 Y151.226 E5.71868
G1 X178.216 Y151.629 E5.72821
G1 X178.625 Y152.089 E5.73774
G1 X178.972 Y152.599 E5.74729
G1 X179.249 Y153.149 E5.75683
G1 X179.453 Y153.73 E5.76636
G1 X179.581 Y154.333 E5.77591
G1 X179.629 Y154.983 E5.786
G1 X179.74 Y174.852 E6.09363
G1 X179.703 Y175.467 E6.10317
G1 X179.588 Y176.073 E6.11272
G1 X179.394 Y176.658 E6.12226
G1 X179.127 Y177.213 E6.13179
G1 X178.79 Y177.729 E6.14134
G1 X178.349 Y178.238 E6.15176
G1 X177.775 Y178.755 E6.16372
G1 X177.263 Y179.098 E6.17326
G1 X176.711 Y179.372 E6.18281
G1 X176.129 Y179.573 E6.19234
G1 X175.525 Y179.696 E6.20188
G1 X174.879 Y179.74 E6.21191
G1 X155.121 Y179.74 E6.51781
G1 X154.506 Y179.7 E6.52735
G1 X153.902 Y179.581 E6.53689
G1 X153.318 Y179.384 E6.54643
G1 X152.764 Y179.114 E6.55597
G1 X152.25 Y178.774 E6.56551
G1 X151.762 Y178.349 E6.57553
G1 X151.245 Y177.775 E6.58749
G1 X150.902 Y177.263 E6.59703
G1 X150.628 Y176.711 E6.60657
G1 X150.427 Y176.129 E6.61611
G1 X150.304 Y175.525 E6.62565
G1 X150.26 Y174.879 E6.63567
G1 X150.26 Y155.121 E6.94158
G1 X150.3 Y154.506 E6.95112
G1 X150.419 Y153.902 E6.96065
G1 X150.616 Y153.318 E6.9702
G1 X150.886 Y152.764 E6.97974
G1 X151.226 Y152.25 E6.98928
G1 X151.651 Y151.762 E6.9993
M204 S5000
M205 X30 Y30
G0 F3600 X152.031 Y151.92
M204 S1500
M205 X2 Y2
G1 F3000 X152.476 Y151.531 E7.00845
G1 X152.97 Y151.206 E7.0176
G1 X153.502 Y150.951 E7.02674
G1 X154.065 Y150.77 E7.03589
G1 X154.647 Y150.666 E7.04505
G1 X155.121 Y150.64 E7.0524
G1 X174.879 Y150.64 E7.3583
G1 X175.469 Y150.68 E7.36746
G1 X176.047 Y150.799 E7.3766
G1 X176.605 Y150.995 E7.38575
G1 X177.131 Y151.265 E7.39491
G1 X177.615 Y151.603 E7.40405
G1 X178.05 Y152.003 E7.4132
G1 X178.427 Y152.458 E7.42234
G1 X178.739 Y152.96 E7.4315
G1 X178.98 Y153.5 E7.44065
G1 X179.146 Y154.067 E7.4498
G1 X179.234 Y154.651 E7.45894
G1 X179.36 Y174.855 E7.77176
G1 X179.323 Y175.444 E7.7809
G1 X179.207 Y176.024 E7.79005
G1 X179.014 Y176.582 E7.79919
G1 X178.748 Y177.11 E7.80835
G1 X178.412 Y177.596 E7.8175
G1 X177.969 Y178.08 E7.82765
G1 X177.524 Y178.469 E7.83681
G1 X177.03 Y178.794 E7.84596
G1 X176.498 Y179.049 E7.85509
G1 X175.935 Y179.23 E7.86425
G1 X175.353 Y179.334 E7.8734
G1 X174.879 Y179.36 E7.88075
G1 X155.121 Y179.36 E8.18666
G1 X154.531 Y179.32 E8.19581
G1 X153.953 Y179.201 E8.20495
G1 X153.395 Y179.005 E8.21411
G1 X152.869 Y178.735 E8.22326
G1 X152.385 Y178.397 E8.2324
G1 X151.92 Y177.969 E8.24219
G1 X151.531 Y177.524 E8.25134
G1 X151.206 Y177.03 E8.26049
G1 X150.951 Y176.498 E8.26963
G1 X150.77 Y175.935 E8.27878
G1 X150.666 Y175.353 E8.28794
G1 X150.64 Y174.879 E8.29529
G1 X150.64 Y155.121 E8.60119
G1 X150.68 Y154.531 E8.61035
G1 X150.799 Y153.953 E8.61948
G1 X150.995 Y153.395 E8.62864
G1 X151.265 Y152.869 E8.6378
G1 X151.603 Y152.385 E8.64694
G1 X152.031 Y151.92 E8.65672
M204 S5000
M205 X30 Y30
G0 F3600 X152.3 Y152.189
M204 S1500
M205 X2 Y2
G1 F3000 X152.726 Y151.819 E8.66546
G1 X153.201 Y151.513 E8.6742
G1 X153.714 Y151.276 E8.68295
G1 X154.255 Y151.115 E8.69169
G1 X154.813 Y151.032 E8.70043
G1 X174.879 Y151.02 E9.0111
G1 X175.442 Y151.06 E9.01984
G1 X175.994 Y151.179 E9.02858
G1 X176.524 Y151.375 E9.03733
G1 X177.02 Y151.643 E9.04606
G1 X177.474 Y151.979 E9.0548
G1 X177.876 Y152.376 E9.06355
G1 X178.218 Y152.825 E9.07229
G1 X178.493 Y153.319 E9.08104
G1 X178.695 Y153.846 E9.08978
G1 X178.821 Y154.396 E9.09852
G1 X178.869 Y154.988 E9.10771
G1 X178.98 Y174.857 E9.41534
G1 X178.943 Y175.42 E9.42408
G1 X178.827 Y175.973 E9.43283
G1 X178.634 Y176.503 E9.44156
G1 X178.369 Y177.002 E9.45031
G1 X178.035 Y177.457 E9.45905
G1 X177.7 Y177.811 E9.46659
G1 X177.274 Y178.181 E9.47533
G1 X176.799 Y178.487 E9.48408
G1 X176.286 Y178.724 E9.49282
G1 X175.745 Y178.885 E9.50156
G1 X175.187 Y178.968 E9.5103
G1 X155.121 Y178.98 E9.82097
G1 X154.558 Y178.94 E9.82971
G1 X154.006 Y178.821 E9.83845
G1 X153.476 Y178.625 E9.8472
G1 X152.98 Y178.357 E9.85593
G1 X152.526 Y178.021 E9.86468
G1 X152.189 Y177.7 E9.87188
G1 X151.819 Y177.274 E9.88062
G1 X151.513 Y176.799 E9.88937
G1 X151.276 Y176.286 E9.89811
G1 X151.115 Y175.745 E9.90685
G1 X151.032 Y175.187 E9.91559
G1 X151.02 Y155.121 E10.22626
G1 X151.06 Y154.558 E10.235
G1 X151.179 Y154.006 E10.24374
G1 X151.375 Y153.476 E10.25249
G1 X151.643 Y152.98 E10.26122
G1 X151.979 Y152.526 E10.26997
G1 X152.3 Y152.189 E10.27717
M204 S5000
M205 X30 Y30
G0 F3600 X152.457 Y152.568
M204 S1500
M205 X2 Y2
G1 F3000 X152.975 Y152.107 E10.28791
G1 X153.43 Y151.821 E10.29623
G1 X153.922 Y151.605 E10.30455
G1 X154.44 Y151.465 E10.31286
G1 X155.121 Y151.4 E10.32345
G1 X174.879 Y151.4 E10.62935
G1 X175.415 Y151.44 E10.63767
G1 X175.938 Y151.559 E10.64598
G1 X176.438 Y151.754 E10.65429
G1 X176.904 Y152.022 E10.66261
G1 X177.325 Y152.355 E10.67092
G1 X177.692 Y152.747 E10.67923
G1 X177.996 Y153.19 E10.68755
G1 X178.232 Y153.672 E10.69586
G1 X178.393 Y154.185 E10.70419
G1 X178.477 Y154.715 E10.7125
G1 X178.6 Y174.859 E11.02438
G1 X178.563 Y175.395 E11.0327
G1 X178.447 Y175.919 E11.04101
G1 X178.254 Y176.42 E11.04932
G1 X177.99 Y176.887 E11.05763
G1 X177.543 Y177.432 E11.06854
G1 X177.025 Y177.893 E11.07928
G1 X176.57 Y178.179 E11.0876
G1 X176.078 Y178.395 E11.09592
G1 X175.56 Y178.535 E11.10423
G1 X174.879 Y178.6 E11.11482
G1 X155.121 Y178.6 E11.42072
G1 X154.585 Y178.56 E11.42904
G1 X154.062 Y178.441 E11.43735
G1 X153.562 Y178.246 E11.44566
G1 X153.096 Y177.978 E11.45398
G1 X152.568 Y177.543 E11.46457
G1 X152.107 Y177.025 E11.47531
G1 X151.821 Y176.57 E11.48363
G1 X151.605 Y176.078 E11.49195
G1 X151.465 Y175.56 E11.50026
G1 X151.4 Y174.879 E11.51085
G1 X151.4 Y155.121 E11.81675
G1 X151.44 Y154.585 E11.82507
G1 X151.559 Y154.062 E11.83338
G1 X151.754 Y153.562 E11.84169
G1 X152.022 Y153.096 E11.85001
G1 X152.457 Y152.568 E11.8606
M204 S5000
M205 X30 Y30
G0 F3600 X152.726 Y152.837
M204 S1500
M205 X2 Y2
G1 F3000 X153.223 Y152.396 E11.87089
G1 X153.657 Y152.131 E11.87876
G1 X154.126 Y151.937 E11.88662
G1 X154.62 Y151.819 E11.89448
G1 X155.121 Y151.78 E11.90226
G1 X174.879 Y151.78 E12.20817
G1 X175.385 Y151.82 E12.21603
G1 X175.879 Y151.939 E12.2239
G1 X176.348 Y152.134 E12.23176
G1 X176.781 Y152.399 E12.23962
G1 X177.167 Y152.73 E12.24749
G1 X177.496 Y153.117 E12.25536
G1 X177.76 Y153.55 E12.26321
G1 X177.954 Y154.02 E12.27108
G1 X178.071 Y154.514 E12.27894
G1 X178.109 Y154.992 E12.28636
G1 X178.22 Y174.861 E12.59399
G1 X178.183 Y175.368 E12.60186
G1 X178.067 Y175.862 E12.60972
G1 X177.875 Y176.332 E12.61758
G1 X177.611 Y176.766 E12.62545
G1 X177.274 Y177.163 E12.63351
G1 X176.777 Y177.604 E12.6438
G1 X176.343 Y177.869 E12.65167
G1 X175.874 Y178.063 E12.65953
G1 X175.38 Y178.181 E12.66739
G1 X174.879 Y178.22 E12.67517
G1 X155.121 Y178.22 E12.98108
G1 X154.615 Y178.18 E12.98893
G1 X154.121 Y178.061 E12.9968
G1 X153.652 Y177.866 E13.00466
G1 X153.219 Y177.601 E13.01252
G1 X152.837 Y177.274 E13.02031
G1 X152.396 Y176.777 E13.0306
G1 X152.131 Y176.343 E13.03847
G1 X151.937 Y175.874 E13.04633
G1 X151.819 Y175.38 E13.05419
G1 X151.78 Y174.879 E13.06197
G1 X151.78 Y155.121 E13.36788
G1 X151.82 Y154.615 E13.37574
G1 X151.939 Y154.121 E13.3836
G1 X152.134 Y153.652 E13.39147
G1 X152.399 Y153.219 E13.39933
G1 X152.726 Y152.837 E13.40711
M204 S5000
M205 X30 Y30
G0 F3600 X153.106 Y152.995
M204 S1500
M205 X2 Y2
G1 F3000 X153.47 Y152.687 E13.41449
G1 X153.881 Y152.444 E13.42189
G1 X154.326 Y152.273 E13.42927
G1 X154.794 Y152.179 E13.43666
G1 X174.879 Y152.16 E13.74763
G1 X175.816 Y152.319 E13.76234
G1 X176.252 Y152.513 E13.76973
G1 X176.65 Y152.777 E13.77712
G1 X176.997 Y153.103 E13.7845
G1 X177.286 Y153.483 E13.79189
G1 X177.507 Y153.906 E13.79928
G1 X177.654 Y154.36 E13.80666
G1 X177.729 Y154.994 E13.81655
G1 X177.84 Y174.863 E14.12418
G1 X177.803 Y175.339 E14.13157
G1 X177.687 Y175.801 E14.13894
G1 X177.495 Y176.238 E14.14633
G1 X177.233 Y176.637 E14.15372
G1 X176.894 Y177.005 E14.16147
G1 X176.53 Y177.313 E14.16885
G1 X176.119 Y177.556 E14.17625
G1 X175.674 Y177.727 E14.18363
G1 X175.206 Y177.821 E14.19102
G1 X155.121 Y177.84 E14.50199
G1 X154.646 Y177.8 E14.50937
G1 X154.184 Y177.681 E14.51675
G1 X153.748 Y177.487 E14.52414
G1 X153.35 Y177.223 E14.53154
G1 X152.995 Y176.894 E14.53903
G1 X152.687 Y176.53 E14.54641
G1 X152.444 Y176.119 E14.5538
G1 X152.273 Y175.674 E14.56118
G1 X152.179 Y175.206 E14.56858
G1 X152.16 Y155.121 E14.87954
G1 X152.2 Y154.646 E14.88692
G1 X152.319 Y154.184 E14.89431
G1 X152.513 Y153.748 E14.9017
G1 X152.777 Y153.35 E14.90909
G1 X153.106 Y152.995 E14.91659
M204 S5000
M205 X30 Y30
G0 F3600 X153.263 Y153.374
M204 S1500
M205 X2 Y2
G1 F3000 X153.715 Y152.979 E14.92588
G1 X154.102 Y152.76 E14.93277
G1 X154.521 Y152.614 E14.93964
G1 X155.121 Y152.54 E14.949
G1 X174.879 Y152.54 E15.2549
G1 X175.749 Y152.698 E15.26859
