;FLAVOR:Marlin
;TIME:1460
;Filament used: 0.561384m
;Layer height: 0.08
;MINX:85.468
;MINY:86.487
;MINZ:0.1
;MAXX:114.529
;MAXY:113.51
;MAXZ:5.94
;Generated with Cura_SteamEngine 4.5.0
M140 S60
M105
M190 S60
M104 S190
M105
M109 S190
M82 ;absolute extrusion mode
G21 ;metric values
G90 ;absolute positioning
M82 ;set extruder to absolute mode
M107 ;start with the fan off
G28 X0 Y0 ;move X/Y to min endstops
G28 Z0 ;move Z to min endstops
G1 Z15.0 F9000 ;move the platform down 15mm
G92 E0 ;zero the extruded length
G1 F200 E3 ;extrude 3mm of feed stock
G92 E0 ;zero the extruded length again
G1 F9000
;Put printing message on LCD screen
M117 Printing...
G92 E0
G92 E0
G1 F1200 E-4
;LAYER_COUNT:74
;LAYER:0
M107
M204 S5000
M205 X30 Y30
G1 F600 Z0.35
G0 F3600 X86.949 Y88.597 Z0.35
M204 S1500
M205 X3 Y3
;TYPE:SKIRT
G1 F600 Z0.1
G1 F1200 E0
G1 F2400 X87.809 Y87.848 E0.01897
G1 X88.76 Y87.26 E0.03756
G1 X89.795 Y86.83 E0.0562
G1 X90.889 Y86.57 E0.0749
G1 X92.006 Y86.487 E0.09353
G1 X93.125 Y86.585 E0.11221
G1 X94.211 Y86.86 E0.13084
G1 X95.232 Y87.301 E0.14933
G1 X96.677 Y88.124 E0.17699
G1 X97.939 Y87.767 E0.1988
G1 X99.185 Y87.585 E0.21974
G1 X100.423 Y87.56 E0.24033
G1 X101.656 Y87.69 E0.26095
G1 X102.875 Y87.974 E0.28176
G1 X103.319 Y88.123 E0.28955
G1 X104.549 Y87.416 E0.31314
G1 X105.332 Y87.034 E0.32763
G1 X106.391 Y86.685 E0.34618
G1 X107.501 Y86.509 E0.36487
G1 X108.612 Y86.51 E0.38334
G1 X109.732 Y86.694 E0.40222
G1 X110.795 Y87.05 E0.42086
G1 X111.783 Y87.57 E0.43943
G1 X112.683 Y88.246 E0.45815
G1 X113.459 Y89.054 E0.47678
G1 X113.755 Y89.444 E0.48492
G1 X114.073 Y90.11 E0.49719
G1 X114.277 Y90.723 E0.50794
G1 X114.494 Y91.832 E0.52673
G1 X114.529 Y92.956 E0.54543
G1 X114.384 Y94.072 E0.56415
G1 X114.063 Y95.147 E0.5828
G1 X113.579 Y96.15 E0.60132
G1 X112.933 Y97.073 E0.62006
G1 X112.15 Y97.879 E0.63875
G1 X111.252 Y98.545 E0.65734
G1 X109.824 Y99.38 E0.68485
G1 X109.501 Y100.655 E0.70672
G1 X109.037 Y101.821 E0.72759
G1 X108.439 Y102.905 E0.74818
G1 X107.713 Y103.905 E0.76873
G1 X106.853 Y104.824 E0.78966
G1 X106.502 Y105.134 E0.79745
G1 X106.5 Y106.552 E0.82103
G1 X106.442 Y107.412 E0.83536
G1 X106.213 Y108.515 E0.8541
G1 X105.811 Y109.562 E0.87275
G1 X105.248 Y110.533 E0.89142
G1 X104.537 Y111.4 E0.91006
G1 X103.693 Y112.144 E0.92877
G1 X102.75 Y112.74 E0.94732
G1 X101.716 Y113.18 E0.96601
G1 X100.622 Y113.449 E0.98475
G1 X100.137 Y113.51 E0.99288
G1 X99.415 Y113.454 E1.00492
G1 X98.779 Y113.326 E1.01571
G1 X98.296 Y113.186 E1.02407
G1 X97.697 Y112.956 E1.03474
G1 X96.705 Y112.421 E1.05348
G1 X95.821 Y111.745 E1.07199
G1 X95.05 Y110.931 E1.09064
G1 X94.417 Y109.998 E1.10939
G1 X93.943 Y108.981 E1.12805
G1 X93.638 Y107.902 E1.14669
G1 X93.511 Y106.793 E1.16526
G1 X93.501 Y105.139 E1.19276
G1 X92.556 Y104.218 E1.21471
G1 X91.779 Y103.235 E1.23555
G1 X91.14 Y102.175 E1.25613
G1 X90.637 Y101.043 E1.27673
G1 X90.273 Y99.84 E1.29763
G1 X90.181 Y99.387 E1.30532
G1 X88.951 Y98.675 E1.32895
G1 X88.234 Y98.192 E1.34333
G1 X87.392 Y97.439 E1.36211
G1 X86.69 Y96.574 E1.38064
G1 X86.129 Y95.595 E1.3994
G1 X85.737 Y94.554 E1.4179
G1 X85.513 Y93.452 E1.4366
G1 X85.468 Y92.335 E1.4552
G1 X85.601 Y91.223 E1.47382
G1 X85.916 Y90.133 E1.49269
G1 X86.107 Y89.682 E1.50083
G1 X86.521 Y89.08 E1.51298
G1 X86.949 Y88.597 E1.52372
M204 S5000
M205 X30 Y30
G0 F3600 X87.248 Y88.863
M204 S1500
M205 X3 Y3
G1 F2400 X88.061 Y88.159 E1.5416
G1 X88.959 Y87.607 E1.55913
G1 X89.936 Y87.204 E1.57671
G1 X90.969 Y86.962 E1.59435
G1 X92.021 Y86.887 E1.61189
G1 X93.077 Y86.982 E1.62952
G1 X94.099 Y87.244 E1.64707
G1 X95.061 Y87.663 E1.66452
G1 X96.645 Y88.567 E1.69485
G1 X97.183 Y88.376 E1.70434
G1 X98.039 Y88.155 E1.71904
G1 X99.235 Y87.982 E1.73914
G1 X100.423 Y87.96 E1.7589
G1 X101.606 Y88.087 E1.77869
G1 X102.777 Y88.362 E1.79869
G1 X103.352 Y88.565 E1.80883
G1 X104.748 Y87.763 E1.8356
G1 X105.504 Y87.395 E1.84959
G1 X106.503 Y87.069 E1.86706
G1 X107.55 Y86.906 E1.88468
G1 X108.598 Y86.91 E1.90211
G1 X109.653 Y87.086 E1.9199
G1 X110.655 Y87.425 E1.93749
G1 X111.585 Y87.918 E1.95499
G1 X112.432 Y88.557 E1.97264
G1 X113.161 Y89.321 E1.9902
G1 X113.435 Y89.685 E1.99778
G1 X113.693 Y90.236 E2.0079
G1 X113.897 Y90.849 E2.01864
G1 X114.099 Y91.895 E2.03636
G1 X114.129 Y92.955 E2.05399
G1 X113.989 Y94.007 E2.07164
G1 X113.684 Y95.019 E2.08922
G1 X113.224 Y95.964 E2.1067
G1 X112.614 Y96.832 E2.12434
G1 X111.873 Y97.59 E2.14197
G1 X111.025 Y98.216 E2.1595
G1 X109.456 Y99.131 E2.1897
G1 X109.353 Y99.697 E2.19927
G1 X109.116 Y100.548 E2.21396
G1 X108.668 Y101.666 E2.23399
G1 X108.093 Y102.705 E2.25374
G1 X107.393 Y103.664 E2.27348
G1 X106.566 Y104.545 E2.29358
G1 X106.103 Y104.94 E2.3037
G1 X106.1 Y106.551 E2.33049
G1 X106.043 Y107.381 E2.34432
G1 X105.824 Y108.42 E2.36198
G1 X105.443 Y109.406 E2.37956
G1 X104.909 Y110.32 E2.39716
G1 X104.237 Y111.136 E2.41474
G1 X103.439 Y111.836 E2.4324
G1 X102.548 Y112.395 E2.44989
G1 X101.573 Y112.807 E2.46749
G1 X100.54 Y113.058 E2.48517
G1 X100.088 Y113.112 E2.49274
G1 X99.494 Y113.062 E2.50265
G1 X98.858 Y112.934 E2.51344
G1 X97.84 Y112.582 E2.53136
G1 X96.907 Y112.076 E2.54901
G1 X96.074 Y111.435 E2.56649
G1 X95.35 Y110.666 E2.58405
G1 X94.755 Y109.785 E2.60173
G1 X94.311 Y108.824 E2.61933
G1 X94.027 Y107.807 E2.63689
G1 X93.91 Y106.761 E2.6544
G1 X93.901 Y104.946 E2.68458
G1 X93.463 Y104.572 E2.69416
G1 X92.842 Y103.938 E2.70892
G1 X92.098 Y102.993 E2.72892
G1 X91.486 Y101.975 E2.74867
G1 X91.005 Y100.887 E2.76846
G1 X90.658 Y99.731 E2.78853
G1 X90.547 Y99.137 E2.79858
G1 X89.152 Y98.329 E2.82539
G1 X88.461 Y97.863 E2.83925
G1 X87.669 Y97.15 E2.85697
G1 X87.009 Y96.333 E2.87444
G1 X86.483 Y95.409 E2.89212
G1 X86.116 Y94.425 E2.90958
G1 X85.908 Y93.386 E2.9272
G1 X85.868 Y92.332 E2.94474
G1 X85.996 Y91.283 E2.96232
G1 X86.296 Y90.258 E2.98008
G1 X86.476 Y89.839 E2.98766
G1 X86.82 Y89.346 E2.99766
G1 X87.248 Y88.863 E3.00839
M204 S5000
M205 X30 Y30
G0 F3600 X87.547 Y89.128
M204 S1500
M205 X3 Y3
G1 F2400 X88.313 Y88.47 E3.02519
G1 X89.157 Y87.955 E3.04163
G1 X90.077 Y87.579 E3.05816
G1 X91.048 Y87.354 E3.07473
G1 X92.037 Y87.287 E3.09122
G1 X93.028 Y87.379 E3.10777
G1 X93.987 Y87.628 E3.12425
G1 X94.89 Y88.024 E3.14064
G1 X96.612 Y89.01 E3.17364
G1 X97.283 Y88.763 E3.18553
G1 X98.139 Y88.542 E3.20023
G1 X99.286 Y88.379 E3.2195
G1 X100.423 Y88.36 E3.23841
G1 X101.557 Y88.484 E3.25738
G1 X102.679 Y88.75 E3.27656
G1 X103.385 Y89.009 E3.28907
G1 X104.948 Y88.11 E3.31905
G1 X105.675 Y87.757 E3.33249
G1 X106.615 Y87.453 E3.34892
G1 X107.6 Y87.303 E3.36549
G1 X107.946 Y87.287 E3.37125
G1 X108.585 Y87.309 E3.38188
G1 X109.575 Y87.478 E3.39858
G1 X110.514 Y87.8 E3.41509
G1 X111.387 Y88.265 E3.43154
G1 X112.18 Y88.869 E3.44812
G1 X112.864 Y89.588 E3.46462
G1 X113.112 Y89.925 E3.47158
G1 X113.313 Y90.362 E3.47958
G1 X113.517 Y90.975 E3.49032
G1 X113.704 Y91.958 E3.50696
G1 X113.729 Y92.954 E3.52353
G1 X113.595 Y93.941 E3.5401
G1 X113.305 Y94.891 E3.55662
G1 X112.87 Y95.778 E3.57305
G1 X112.294 Y96.592 E3.58963
G1 X111.596 Y97.302 E3.60619
G1 X110.799 Y97.886 E3.62262
G1 X109.09 Y98.881 E3.6555
G1 X108.967 Y99.589 E3.66745
G1 X108.73 Y100.44 E3.68215
G1 X108.3 Y101.511 E3.70134
G1 X107.746 Y102.505 E3.72026
G1 X107.074 Y103.423 E3.73918
G1 X106.279 Y104.266 E3.75845
G1 X105.703 Y104.748 E3.77094
G1 X105.7 Y106.551 E3.80093
G1 X105.644 Y107.351 E3.81426
G1 X105.436 Y108.325 E3.83083
G1 X105.075 Y109.25 E3.84734
G1 X104.57 Y110.108 E3.8639
G1 X103.936 Y110.872 E3.88041
G1 X103.185 Y111.527 E3.89698
G1 X102.346 Y112.049 E3.91341
G1 X101.429 Y112.434 E3.92995
G1 X100.458 Y112.666 E3.94655
G1 X100.042 Y112.713 E3.95351
G1 X99.573 Y112.67 E3.96135
G1 X98.937 Y112.542 E3.97214
G1 X97.983 Y112.209 E3.98894
G1 X97.109 Y111.731 E4.00551
G1 X96.328 Y111.126 E4.02193
G1 X95.65 Y110.401 E4.03844
G1 X95.094 Y109.572 E4.05504
G1 X94.679 Y108.668 E4.07158
G1 X94.415 Y107.712 E4.08808
G1 X94.309 Y106.73 E4.1045
G1 X94.301 Y104.752 E4.1374
G1 X93.748 Y104.292 E4.14936
G1 X93.127 Y103.658 E4.16412
G1 X92.416 Y102.751 E4.18328
G1 X91.833 Y101.775 E4.20219
G1 X91.373 Y100.731 E4.22116
G1 X91.043 Y99.623 E4.24039
G1 X90.915 Y98.888 E4.2528
G1 X89.352 Y97.983 E4.28283
G1 X88.687 Y97.533 E4.29618
G1 X87.946 Y96.862 E4.31281
G1 X87.328 Y96.091 E4.32924
G1 X86.837 Y95.222 E4.34584
G1 X86.494 Y94.297 E4.36225
G1 X86.302 Y93.32 E4.3788
G1 X86.268 Y92.33 E4.39528
G1 X86.392 Y91.344 E4.4118
G1 X86.676 Y90.383 E4.42847
G1 X86.844 Y89.999 E4.43544
G1 X87.119 Y89.611 E4.44335
G1 X87.547 Y89.128 E4.45408
M204 S5000
M205 X30 Y30
G0 F3600 X87.847 Y89.393
M204 S1500
M205 X3 Y3
G1 F2400 X88.564 Y88.781 E4.46976
G1 X89.356 Y88.302 E4.48515
G1 X90.217 Y87.953 E4.5006
G1 X91.127 Y87.746 E4.51612
G1 X92.053 Y87.686 E4.53155
G1 X92.979 Y87.776 E4.54702
G1 X93.876 Y88.012 E4.56245
G1 X94.719 Y88.386 E4.57779
G1 X96.58 Y89.453 E4.61346
G1 X97.169 Y89.22 E4.62399
G1 X98.239 Y88.929 E4.64243
G1 X99.336 Y88.775 E4.66086
G1 X100.424 Y88.76 E4.67895
G1 X101.507 Y88.881 E4.69707
G1 X102.581 Y89.138 E4.71544
G1 X103.417 Y89.45 E4.73028
G1 X105.147 Y88.456 E4.76346
G1 X105.847 Y88.118 E4.77639
G1 X106.727 Y87.837 E4.79175
G1 X107.649 Y87.7 E4.80725
G1 X108.571 Y87.709 E4.82258
G1 X109.496 Y87.87 E4.8382
G1 X110.374 Y88.174 E4.85365
G1 X111.189 Y88.612 E4.86904
G1 X111.929 Y89.18 E4.88455
G1 X112.566 Y89.855 E4.89998
G1 X112.788 Y90.162 E4.90628
G1 X113.138 Y91.102 E4.92296
G1 X113.309 Y92.021 E4.93851
G1 X113.329 Y92.953 E4.95401
G1 X113.2 Y93.876 E4.96951
G1 X112.926 Y94.763 E4.98495
G1 X112.516 Y95.592 E5.00033
G1 X111.974 Y96.351 E5.01584
G1 X111.318 Y97.014 E5.03135
G1 X110.572 Y97.557 E5.0467
G1 X108.722 Y98.632 E5.08228
G1 X108.629 Y99.261 E5.09285
G1 X108.345 Y100.333 E5.1113
G1 X107.931 Y101.357 E5.12966
G1 X107.4 Y102.305 E5.14773
G1 X106.755 Y103.182 E5.16584
G1 X105.992 Y103.987 E5.18428
G1 X105.303 Y104.555 E5.19913
G1 X105.3 Y106.55 E5.23231
G1 X105.246 Y107.32 E5.24515
G1 X105.047 Y108.23 E5.26064
G1 X104.706 Y109.094 E5.27608
G1 X104.231 Y109.895 E5.29157
G1 X103.636 Y110.607 E5.307
G1 X102.931 Y111.218 E5.32252
G1 X102.144 Y111.704 E5.3379
G1 X101.285 Y112.06 E5.35336
G1 X100.376 Y112.275 E5.3689
G1 X99.999 Y112.313 E5.3752
G1 X99.016 Y112.15 E5.39177
G1 X98.127 Y111.835 E5.40745
G1 X97.311 Y111.386 E5.42294
G1 X96.581 Y110.816 E5.43834
G1 X95.95 Y110.136 E5.45377
G1 X95.432 Y109.359 E5.4693
G1 X95.047 Y108.512 E5.48477
G1 X94.804 Y107.617 E5.5002
G1 X94.708 Y106.698 E5.51556
G1 X94.701 Y104.558 E5.55115
G1 X94.203 Y104.164 E5.56171
G1 X93.413 Y103.379 E5.58023
G1 X92.735 Y102.509 E5.59857
G1 X92.179 Y101.575 E5.61665
G1 X91.742 Y100.576 E5.63478
G1 X91.428 Y99.514 E5.6532
G1 X91.281 Y98.638 E5.66797
G1 X89.553 Y97.637 E5.70118
G1 X88.914 Y97.204 E5.71402
G1 X88.223 Y96.573 E5.72958
G1 X87.647 Y95.85 E5.74495
G1 X87.191 Y95.036 E5.76047
G1 X86.873 Y94.169 E5.77583
G1 X86.697 Y93.254 E5.79132
G1 X86.668 Y92.327 E5.80675
G1 X86.787 Y91.405 E5.82221
G1 X87.056 Y90.508 E5.83778
G1 X87.212 Y90.162 E5.84409
G1 X87.847 Y89.393 E5.86068
M204 S5000
M205 X30 Y30
G0 F3600 X88.146 Y89.659
M204 S1500
M205 X3 Y3
G1 F2400 X88.816 Y89.092 E5.87527
G1 X89.555 Y88.649 E5.8896
G1 X90.358 Y88.328 E5.90398
G1 X91.207 Y88.138 E5.91845
G1 X92.068 Y88.086 E5.9328
G1 X92.931 Y88.173 E5.94722
G1 X93.764 Y88.397 E5.96157
G1 X94.548 Y88.747 E5.97584
G1 X96.548 Y89.897 E6.01421
G1 X97.317 Y89.592 E6.02797
G1 X98.339 Y89.316 E6.04557
G1 X99.387 Y89.172 E6.06316
G1 X100.424 Y89.16 E6.08041
G1 X101.458 Y89.278 E6.09772
G1 X102.484 Y89.526 E6.11527
G1 X103.449 Y89.893 E6.13244
G1 X105.346 Y88.803 E6.16883
G1 X106.019 Y88.479 E6.18125
G1 X106.84 Y88.221 E6.19556
G1 X107.698 Y88.097 E6.20998
G1 X108.557 Y88.109 E6.22426
G1 X109.417 Y88.262 E6.23879
G1 X110.234 Y88.549 E6.25319
G1 X110.991 Y88.96 E6.26751
G1 X111.678 Y89.491 E6.28195
G1 X112.268 Y90.122 E6.29632
G1 X112.46 Y90.396 E6.30188
G1 X112.758 Y91.228 E6.31658
G1 X112.914 Y92.084 E6.33105
G1 X112.929 Y92.951 E6.34547
G1 X112.805 Y93.811 E6.35992
G1 X112.547 Y94.635 E6.37428
G1 X112.162 Y95.406 E6.38861
G1 X111.655 Y96.111 E6.40305
G1 X111.041 Y96.725 E6.41749
G1 X110.345 Y97.227 E6.43176
G1 X108.354 Y98.381 E6.47003
G1 X108.233 Y99.203 E6.48385
G1 X107.96 Y100.226 E6.50146
G1 X107.562 Y101.202 E6.51899
G1 X107.054 Y102.105 E6.53622
G1 X106.435 Y102.941 E6.55352
G1 X105.705 Y103.709 E6.57114
G1 X104.904 Y104.361 E6.58831
G1 X104.9 Y106.549 E6.6247
G1 X104.847 Y107.289 E6.63704
G1 X104.659 Y108.135 E6.65145
G1 X104.338 Y108.938 E6.66583
G1 X103.892 Y109.683 E6.68027
G1 X103.335 Y110.343 E6.69463
G1 X102.677 Y110.909 E6.70907
G1 X101.942 Y111.359 E6.7234
G1 X101.141 Y111.687 E6.73779
G1 X100.294 Y111.883 E6.75225
G1 X99.961 Y111.912 E6.75781
G1 X99.095 Y111.757 E6.77244
G1 X98.27 Y111.462 E6.78701
G1 X97.513 Y111.04 E6.80142
G1 X96.835 Y110.507 E6.81577
G1 X96.25 Y109.872 E6.83013
G1 X95.77 Y109.145 E6.84461
G1 X95.415 Y108.355 E6.85902
G1 X95.192 Y107.521 E6.87337
G1 X95.106 Y106.666 E6.88766
G1 X95.101 Y104.365 E6.92593
G1 X94.451 Y103.851 E6.93971
G1 X93.699 Y103.099 E6.9574
G1 X93.053 Y102.267 E6.97491
G1 X92.525 Y101.375 E6.99215
G1 X92.11 Y100.42 E7.00947
G1 X91.813 Y99.405 E7.02705
G1 X91.648 Y98.388 E7.04419
G1 X89.753 Y97.29 E7.08061
G1 X89.141 Y96.874 E7.09292
G1 X88.5 Y96.284 E7.1074
G1 X87.966 Y95.608 E7.12173
G1 X87.545 Y94.849 E7.13617
G1 X87.252 Y94.04 E7.15047
G1 X87.091 Y93.188 E7.16489
G1 X87.068 Y92.325 E7.17925
G1 X87.182 Y91.465 E7.19368
G1 X87.436 Y90.633 E7.20814
G1 X87.578 Y90.33 E7.21371
G1 X88.146 Y89.659 E7.22833
M204 S5000
M205 X30 Y30
G0 F3600 X88.446 Y89.924
M204 S1500
M205 X3 Y3
G1 F2400 X89.067 Y89.403 E7.24181
G1 X89.753 Y88.996 E7.25507
G1 X90.499 Y88.702 E7.26841
G1 X91.286 Y88.53 E7.28181
G1 X92.084 Y88.486 E7.2951
G1 X92.882 Y88.57 E7.30844
G1 X93.653 Y88.781 E7.32173
G1 X94.377 Y89.109 E7.33495
G1 X96.525 Y90.345 E7.37617
G1 X97.464 Y89.963 E7.39302
G1 X98.439 Y89.704 E7.4098
G1 X99.437 Y89.569 E7.42655
G1 X100.425 Y89.56 E7.44298
G1 X101.409 Y89.675 E7.45945
G1 X102.386 Y89.913 E7.47618
G1 X103.336 Y90.278 E7.4931
G1 X103.471 Y90.343 E7.49559
G1 X105.546 Y89.15 E7.5354
G1 X106.19 Y88.841 E7.54728
G1 X106.952 Y88.605 E7.56054
G1 X107.747 Y88.494 E7.57389
G1 X108.543 Y88.509 E7.58713
G1 X109.339 Y88.655 E7.60059
G1 X110.094 Y88.923 E7.61391
G1 X110.792 Y89.307 E7.62716
G1 X111.427 Y89.803 E7.64056
G1 X111.97 Y90.389 E7.65385
G1 X112.175 Y90.741 E7.66062
G1 X112.379 Y91.354 E7.67137
G1 X112.519 Y92.147 E7.68476
G1 X112.529 Y92.95 E7.69811
G1 X112.411 Y93.746 E7.71149
G1 X112.168 Y94.508 E7.72479
G1 X111.808 Y95.221 E7.73808
G1 X111.335 Y95.87 E7.75143
G1 X110.764 Y96.437 E7.76482
G1 X110.118 Y96.898 E7.77801
G1 X107.976 Y98.138 E7.81917
G1 X107.837 Y99.145 E7.83608
G1 X107.574 Y100.118 E7.85284
G1 X107.193 Y101.047 E7.86954
G1 X106.707 Y101.905 E7.88594
G1 X106.116 Y102.7 E7.90241
G1 X105.418 Y103.43 E7.91921
G1 X104.63 Y104.068 E7.93607
G1 X104.504 Y104.155 E7.93861
G1 X104.5 Y106.549 E7.97843
G1 X104.448 Y107.258 E7.99025
G1 X104.27 Y108.04 E8.00359
G1 X103.97 Y108.782 E8.0169
G1 X103.553 Y109.47 E8.03028
G1 X103.035 Y110.079 E8.04357
G1 X102.422 Y110.6 E8.05695
G1 X101.741 Y111.013 E8.0702
G1 X100.997 Y111.314 E8.08354
G1 X100.212 Y111.492 E8.09693
G1 X99.81 Y111.493 E8.10361
G1 X99.174 Y111.365 E8.1144
G1 X98.414 Y111.089 E8.12785
G1 X97.715 Y110.695 E8.14119
G1 X97.088 Y110.198 E8.1545
G1 X96.549 Y109.607 E8.1678
G1 X96.109 Y108.932 E8.1812
G1 X95.784 Y108.199 E8.19453
G1 X95.581 Y107.426 E8.20783
G1 X95.505 Y106.635 E8.22104
G1 X95.5 Y104.159 E8.26222
G1 X94.699 Y103.537 E8.27908
G1 X93.985 Y102.819 E8.29592
